X: 4829
T: Boys On The Hilltop, The
R: reel
M: 4/4
K: Adorian
~A3B B2AG|=FG~G2 FGBG|A2AB ~B2AB|egdB BAAG|
DAAB ~B2AG|=FG~G2 FGBG|cEGc dB~B2|dBAG EAAG||
A2 (3Bcd egdB|^GB~B2 def=g|a2gd egdB|^GBdB BAA2|
a2=gd egdB|^GB~B2 defg|a2gd egdB|fggf gedB||
A=FAB ~B2AG|DG~G2 DGBG|A2AB ~B2AB|egdB BAAG|
=FAAB ~B2AG|DG~G2 DGBG|cEGc dB~B2|dBAG EAAG||
A2 (3Bcd egdB|^GB~B2 def=g|a2gd egdB|^GBdB BAA2|
a2=gd egdB|^GB~B2 defg|a2gd egdB|fggf gedB||

